X: 874
T: Sarah Armstrong's Tune
B: jims roots
M:C|
L:1/8
Q: 1/4=100
K:D
V:1 
DB,|"D"A,2D2"G"B,2D2|"D"A,2DE FEDF|"A"E2A2 "D"F2A2|"A"E2AB cBAF|
"D"A,2D2"G"B,2D2|"D"A,2DE FEDA|FAAB A2AB|"A"AGFE"D"D2:|
|:(3ABc|"D"d2dc dAFD|"A"E3F EFGA|"G"B2Bc BAFE|"D"D d2c dABc|
"D"d2dc dAFD|"A"E3F EFGA|"G"B2Bc BAFE|1"D"B,D2ED2:|2"D"B,D2E DEDB,|]
dB|"D"A2d2"G"B2d2|"D"A2de fedf|"A"e2a2 "D"f2a2|"A"e2ab c'baf|
"D"A2d2"G"B2d2|"D"A2de feda|faab a2ab|"A"agfe"D"d2:|
% abcbook-tune_id 6298c287d05968ff83c25bc7


% abcbook-boost 0
% abcbook-tablature 
% abcbook-transpose 
% abcbook-lastupdated 1654178440202
% abcbook-soundfonts 
% abcbook-repeats 1


